synths/iDEFI.svg

<svg width="480" height="480" viewBox="0 0 480 480" fill="none" xmlns="http://www.w3.org/2000/svg"><mask id="mask0-557789" maskUnits="userSpaceOnUse" x="0" y="0" width="480" height="480"><circle cx="240" cy="240" r="240" fill="url(#paint0_linear-040620)"/></mask><g mask="url(#mask0-557789)"><circle cx="240" cy="240" r="240" fill="#FF1E39"/><circle cx="240" cy="240" r="208" fill="#fff"/></g><circle cx="240" cy="240" r="184" fill="#0E052F"/><circle cx="240" cy="240" r="184" fill="#0E052F"/><path d="M207.428 133.714c-.88-1.008-1.964-1.513-3.254-1.513h-26.383a.765.765 0 01-.571-.222.677.677 0 01-.22-.488v-17.78a.68.68 0 01.22-.488.762.762 0 01.571-.223h27.879c7.035 0 13.104 2.876 18.205 8.623l6.772 8.267-13.192 16.091-10.027-12.267zm48.724-12.179c5.101-5.69 11.198-8.535 18.293-8.535h27.791c.234 0 .41.06.528.177.116.12.175.297.175.534v17.78a.771.771 0 01-.175.488c-.118.148-.294.222-.528.222h-26.383c-1.29 0-2.374.505-3.255 1.513l-19.436 23.647 19.524 23.824c.88.95 1.934 1.423 3.167 1.423h26.383c.234 0 .41.074.528.223.116.148.175.342.175.576v17.781a.771.771 0 01-.175.488c-.118.148-.294.222-.528.222h-27.791c-7.095 0-13.164-2.873-18.205-8.623l-16.182-19.735-16.183 19.735c-5.101 5.75-11.199 8.623-18.293 8.623h-27.791c-.235 0-.412-.074-.528-.222-.119-.149-.175-.34-.175-.579v-17.78a.76.76 0 01.175-.489c.116-.148.293-.222.528-.222h26.383c1.231 0 2.315-.503 3.254-1.512l19.084-23.291 29.64-36.268z" fill="#00D1FF"/><path fill-rule="evenodd" clip-rule="evenodd" d="M129.922 327.862a10.328 10.328 0 01-4.922-8.793v-20.005c0-.766.205-1.504.586-2.161a4.272 4.272 0 015.863-1.545l45.021 26.323a8.605 8.605 0 014.254 7.425v20.73c0 .943-.259 1.887-.75 2.694a5.134 5.134 0 01-7.076 1.709l-42.976-26.377zm67.109-37.987a8.604 8.604 0 014.253 7.425v42.061a3.428 3.428 0 01-1.745 2.995l-9.857 5.566a2.027 2.027 0 01-.396.164V324.73a8.616 8.616 0 00-4.172-7.384l-39.54-23.724v-26.364c0-.766.205-1.504.587-2.161a4.27 4.27 0 015.862-1.545l45.008 26.323zm19.701-31.068a8.596 8.596 0 014.268 7.439v61.438a3.45 3.45 0 01-1.8 3.022l-9.34 5.059v-42.772a8.612 8.612 0 00-4.158-7.371L165.29 261.31V236.3c0-.766.204-1.504.572-2.161a4.289 4.289 0 015.863-1.559l45.007 26.227z" fill="#00D395"/><path d="M274.012 272.771a3.842 3.842 0 00-.012.304v72.352a4.405 4.405 0 002.722 4.074 4.41 4.41 0 006.097-4.074v-12.822a4.41 4.41 0 118.819 0v6.079a4.41 4.41 0 008.819 0v-6.079a4.41 4.41 0 118.819 0v1.659a4.408 4.408 0 108.818 0v-1.659a4.41 4.41 0 018.82 0v6.079a4.418 4.418 0 001.291 3.118 4.398 4.398 0 003.117 1.291 4.42 4.42 0 003.119-1.291 4.418 4.418 0 001.291-3.118v-6.079a4.409 4.409 0 014.41-4.41 4.41 4.41 0 014.409 4.41v12.822a4.41 4.41 0 108.819 0v-72.352c0-.103-.005-.204-.012-.304-.487-21.495-18.062-38.771-39.673-38.771s-39.187 17.276-39.673 38.771zm47.245-1.748c0-4.471 3.161-8.096 7.061-8.096s7.061 3.625 7.061 8.096c0 4.472-3.161 8.097-7.061 8.097s-7.061-3.625-7.061-8.097zm-29.266 0c0-4.471 3.161-8.096 7.061-8.096s7.062 3.625 7.062 8.096c0 4.472-3.162 8.097-7.062 8.097-3.9 0-7.061-3.625-7.061-8.097zm28.419 14.816c0 2.602-2.869 4.711-6.409 4.711-3.539 0-6.408-2.109-6.408-4.711 0-2.601 2.869-1.032 6.408-1.032 3.54 0 6.409-1.569 6.409 1.032z" fill="url(#paint1_linear-560418)"/><defs><linearGradient id="paint0_linear-040620" x1="240" y1="0" x2="240" y2="701.818" gradientUnits="userSpaceOnUse"><stop stop-color="#08021E"/><stop offset="1" stop-color="#1F0777"/></linearGradient><linearGradient id="paint1_linear-560418" x1="274" y1="350" x2="341" y2="246.5" gradientUnits="userSpaceOnUse"><stop stop-color="#50B5AC"/><stop offset="1" stop-color="#B22F92"/></linearGradient></defs></svg>

<svg width="480" height="480" viewBox="0 0 480 480" fill="none" xmlns="http://www.w3.org/2000/svg">
<mask id="mask0-557789" mask-type="alpha" maskUnits="userSpaceOnUse" x="0" y="0" width="480" height="480">
<circle cx="240" cy="240" r="240" fill="url(#paint0_linear-040620)"/>
</mask>
<g mask="url(#mask0-557789)">
<circle cx="240" cy="240" r="240" fill="#FF1E39"/>
<circle cx="240" cy="240" r="208" fill="white"/>
</g>
<circle cx="240" cy="240" r="184" fill="#0E052F"/>
<circle cx="240" cy="240" r="184" fill="#0E052F"/>
<path d="M207.428 133.714C206.548 132.706 205.464 132.201 204.174 132.201H177.791C177.556 132.201 177.365 132.127 177.22 131.979C177.073 131.833 177 131.668 177 131.491V113.711C177 113.534 177.073 113.371 177.22 113.223C177.365 113.074 177.556 113 177.791 113H205.67C212.705 113 218.774 115.876 223.875 121.623L230.647 129.89L217.455 145.981L207.428 133.714ZM256.152 121.535C261.253 115.845 267.35 113 274.445 113H302.236C302.47 113 302.646 113.06 302.764 113.177C302.88 113.297 302.939 113.474 302.939 113.711V131.491C302.939 131.668 302.88 131.833 302.764 131.979C302.646 132.127 302.47 132.201 302.236 132.201H275.853C274.563 132.201 273.479 132.706 272.598 133.714L253.162 157.361L272.686 181.185C273.566 182.135 274.62 182.608 275.853 182.608H302.236C302.47 182.608 302.646 182.682 302.764 182.831C302.88 182.979 302.939 183.173 302.939 183.407V201.188C302.939 201.365 302.88 201.53 302.764 201.676C302.646 201.824 302.47 201.898 302.236 201.898H274.445C267.35 201.898 261.281 199.025 256.24 193.275L240.058 173.54L223.875 193.275C218.774 199.025 212.676 201.898 205.582 201.898H177.791C177.556 201.898 177.379 201.824 177.263 201.676C177.144 201.527 177.088 201.336 177.088 201.097V183.317C177.088 183.139 177.144 182.977 177.263 182.828C177.379 182.68 177.556 182.606 177.791 182.606H204.174C205.405 182.606 206.489 182.103 207.428 181.094L226.512 157.803L256.152 121.535Z" fill="#00D1FF"/>
<path fill-rule="evenodd" clip-rule="evenodd" d="M129.922 327.862C126.868 325.988 125 322.652 125 319.069V299.064C125 298.298 125.205 297.56 125.586 296.903C126.772 294.852 129.404 294.155 131.449 295.358L176.47 321.681C179.101 323.226 180.724 326.043 180.724 329.106V349.836C180.724 350.779 180.465 351.723 179.974 352.53C178.488 354.964 175.325 355.729 172.898 354.239L129.922 327.862ZM197.031 289.875C199.662 291.42 201.284 294.237 201.284 297.3V339.361C201.284 340.606 200.616 341.754 199.539 342.356L189.682 347.922C189.559 347.99 189.423 348.045 189.286 348.086V324.73C189.286 321.708 187.705 318.905 185.114 317.346L145.574 293.622V267.258C145.574 266.492 145.779 265.754 146.161 265.097C147.347 263.046 149.978 262.349 152.023 263.552L197.031 289.875ZM216.732 258.807C219.377 260.339 221 263.183 221 266.246V327.684C221 328.942 220.305 330.104 219.2 330.706L209.86 335.765V292.993C209.86 289.971 208.279 287.181 205.702 285.622L165.29 261.31V236.3C165.29 235.534 165.494 234.796 165.862 234.139C167.049 232.088 169.68 231.391 171.725 232.58L216.732 258.807Z" fill="#00D395"/>
<path d="M274.012 272.771C274.004 272.872 274 272.973 274 273.075V345.427C274 346.006 274.114 346.58 274.336 347.115C274.557 347.65 274.882 348.136 275.292 348.545C275.701 348.955 276.187 349.28 276.722 349.501C277.257 349.723 277.831 349.837 278.41 349.837C280.845 349.837 282.819 347.863 282.819 345.427V332.605C282.819 330.17 284.793 328.195 287.228 328.195C288.398 328.195 289.519 328.66 290.346 329.487C291.173 330.314 291.638 331.435 291.638 332.605V338.684C291.638 339.853 292.103 340.975 292.929 341.802C293.756 342.629 294.878 343.093 296.047 343.093C296.626 343.093 297.2 342.979 297.735 342.758C298.27 342.536 298.756 342.211 299.165 341.802C299.575 341.392 299.9 340.906 300.121 340.371C300.343 339.836 300.457 339.263 300.457 338.684V332.605C300.457 330.17 302.431 328.195 304.866 328.195C307.301 328.195 309.276 330.17 309.276 332.605V334.264C309.276 335.434 309.74 336.555 310.567 337.382C311.394 338.209 312.516 338.674 313.685 338.674C314.854 338.674 315.976 338.209 316.803 337.382C317.63 336.555 318.094 335.434 318.094 334.264V332.605C318.094 330.17 320.069 328.195 322.504 328.195C324.939 328.195 326.914 330.17 326.914 332.605V338.684C326.914 339.263 327.028 339.836 327.249 340.371C327.471 340.906 327.795 341.392 328.205 341.802C328.614 342.211 329.1 342.536 329.635 342.757C330.17 342.979 330.743 343.093 331.322 343.093C331.902 343.093 332.475 342.979 333.01 342.758C333.545 342.536 334.031 342.211 334.441 341.802C334.85 341.392 335.175 340.906 335.397 340.371C335.618 339.836 335.732 339.263 335.732 338.684V332.605C335.732 331.435 336.197 330.314 337.024 329.487C337.851 328.66 338.972 328.195 340.142 328.195C342.577 328.195 344.551 330.17 344.551 332.605V345.427C344.551 347.863 346.525 349.837 348.961 349.837C350.13 349.837 351.252 349.372 352.079 348.545C352.906 347.718 353.37 346.597 353.37 345.427V273.075C353.37 272.972 353.365 272.871 353.358 272.771C352.871 251.276 335.296 234 313.685 234C292.074 234 274.498 251.276 274.012 272.771ZM321.257 271.023C321.257 266.552 324.418 262.927 328.318 262.927C332.218 262.927 335.379 266.552 335.379 271.023C335.379 275.495 332.218 279.12 328.318 279.12C324.418 279.12 321.257 275.495 321.257 271.023ZM291.991 271.023C291.991 266.552 295.152 262.927 299.052 262.927C302.952 262.927 306.114 266.552 306.114 271.023C306.114 275.495 302.952 279.12 299.052 279.12C295.152 279.12 291.991 275.495 291.991 271.023ZM320.41 285.839C320.41 288.441 317.541 290.55 314.001 290.55C310.462 290.55 307.593 288.441 307.593 285.839C307.593 283.238 310.462 284.807 314.001 284.807C317.541 284.807 320.41 283.238 320.41 285.839Z" fill="url(#paint1_linear-560418)"/>
<defs>
<linearGradient id="paint0_linear-040620" x1="240" y1="0" x2="240" y2="701.818" gradientUnits="userSpaceOnUse">
<stop stop-color="#08021E"/>
<stop offset="1" stop-color="#1F0777"/>
</linearGradient>
<linearGradient id="paint1_linear-560418" x1="274" y1="350" x2="341" y2="246.5" gradientUnits="userSpaceOnUse">
<stop stop-color="#50B5AC"/>
<stop offset="1" stop-color="#B22F92"/>
</linearGradient>
</defs>
</svg>
